svg/fluentui-system-icons/ic_fluent_tab_desktop_24_filled.svg

<svg width="24" height="24" viewBox="0 0 24 24" fill="none" xmlns="http://www.w3.org/2000/svg">
<path d="M11 3H6C4.34315 3 3 4.34315 3 6V18C3 19.6569 4.34315 21 6 21H18C19.6569 21 21 19.6569 21 18V8H13.25C12.0074 8 11 6.99264 11 5.75V3ZM21 6.5V6C21 4.34315 19.6569 3 18 3H12.5V5.75C12.5 6.16421 12.8358 6.5 13.25 6.5H21Z" fill="#212121"/>
</svg>

<svg xmlns="http://www.w3.org/2000/svg" width="24" height="24"><path d="M11 3H6a3 3 0 0 0-3 3v12a3 3 0 0 0 3 3h12a3 3 0 0 0 3-3V8h-7.75A2.25 2.25 0 0 1 11 5.75V3Zm10 3.5V6a3 3 0 0 0-3-3h-5.5v2.75c0 .414.336.75.75.75H21Z"/></svg>
